X:1
T:Title
%%score { ( 1 3 ) | ( 2 4 ) }
L:1/8
Q:1/4=100
M:4/4
K:Bb
V:1 treble nm="Grand Piano"
V:3 treble 
V:2 bass 
V:4 bass 
V:1
 [B,D]2 [CE]2 [DF]2 [EG][CA] | [DB]2 .[_DA]2 [=DF]4 | z4 z2 G2 | z4 A4 | z4 z2 .[FB]2 | %5
w: J.~Wilson * * * *|||||
 [Fd]2 [Ec]2 B-[F,B-][GB-][FB] | z D B2 d2 c2 |[M:8/4] B2 [CA][Ec] [DB]4 z8 |[M:4/4] [EB]8 | %9
w: ||||
 [DB]8 |] %10
w: |
V:2
 [B,,F,]2 [B,,F,]2 [B,,F,]2 [B,,F,]2 | [B,,F,]2 z G z2 B,2 | E,2 E,2 D,2 z E | %3
 [F,DF]2 [G,C=E]2 [F,CF]4 | [B,,B,]2 [B,,B,]2 [B,,B,]2 D,E, | [B,,B,]2 [C,_A,]2 .A,2 B,A, | %6
 .[E,G,E]2 [=E,G,_D]2 [F,=D]2 [F,E]2 |[M:8/4] [F,D]2 [F,,F,]2 [B,,F,]4 z8 |[M:4/4] [E,G,]8 | %9
 [B,,F,]8 |] %10
V:3
 x8 | z4 F,2 z2 | [B,EG]2 [CFA]2 [B,FB]2 [Fd]c | B2 B2 z2 z E | D2 [CE]2 [DF]2 B,-[B,Ac] | %5
 z4 F2 z2 | B2 z2 z4 |[M:8/4] x16 |[M:4/4] x8 | x8 |] %10
V:4
 x8 | z2 [B,,=E,]2 B,,4 | z4 z2 E,2 | x8 | x8 | z4 D,4 | x8 |[M:8/4] x16 |[M:4/4] x8 | x8 |] %10

